src/icons/dapp/dapp-favorite.svg

<svg width="24" height="24" viewBox="0 0 24 24" fill="currentColor" xmlns="http://www.w3.org/2000/svg">
<path d="M12.4298 17.0859L12.0162 16.783L11.6026 17.0859L6.80906 20.5966L6.80696 20.5981C6.51373 20.8146 6.32471 20.7452 6.28371 20.7181C6.26088 20.703 6.23495 20.6768 6.21947 20.6175C6.20288 20.5539 6.19294 20.4253 6.26394 20.2198L6.26396 20.2198L6.26586 20.2142L8.15622 14.588L8.321 14.0976L7.90054 13.7961L2.97203 10.2628L2.97203 10.2628L2.96983 10.2612C2.80788 10.146 2.74241 10.0414 2.71751 9.97848C2.69351 9.91782 2.69844 9.87699 2.70732 9.85055C2.72004 9.81269 2.8037 9.66384 3.12679 9.66384H9.20299H9.71137L9.86865 9.1804L11.6917 3.57672L11.6917 3.57673L11.6942 3.56886C11.7796 3.29532 11.9377 3.24999 12.0161 3.24999C12.0945 3.24999 12.2527 3.29536 12.3382 3.56897L12.3382 3.56898L12.3399 3.57428L14.1403 9.17796L14.2964 9.66384H14.8067H20.8831C21.2033 9.66384 21.2806 9.80974 21.2926 9.84607C21.3017 9.87379 21.3066 9.91751 21.2817 9.98129C21.2562 10.0467 21.191 10.151 21.035 10.2647C21.0347 10.265 21.0343 10.2652 21.0339 10.2655L16.1304 13.797L15.7131 14.0975L15.8752 14.5856L17.7431 20.2118L17.7431 20.2118L17.7459 20.2198C17.8168 20.4252 17.8071 20.5543 17.7904 20.6185C17.7748 20.6787 17.7486 20.705 17.7267 20.7196C17.689 20.7447 17.5098 20.8132 17.2319 20.603L17.232 20.6029L17.2233 20.5966L12.4298 17.0859Z" stroke="currentColor" stroke-width="1.4"/>
</svg>

<svg width="24" height="24" fill="currentColor" xmlns="http://www.w3.org/2000/svg"><path d="m12.43 17.086-.414-.303-.413.303-4.794 3.51-.002.002c-.293.217-.482.147-.523.12-.023-.015-.049-.041-.065-.1-.016-.064-.026-.193.045-.398l.002-.006 1.89-5.626.165-.49-.42-.302-4.929-3.533-.002-.002c-.162-.115-.228-.22-.252-.283-.024-.06-.02-.101-.01-.127.012-.038.096-.187.419-.187H9.71l.158-.484 1.823-5.603.002-.008c.086-.274.244-.319.322-.319.079 0 .237.045.322.319l.002.005 1.8 5.604.156.486h6.587c.32 0 .398.146.41.182a.195.195 0 0 1-.011.135c-.026.066-.091.17-.247.284h-.001l-4.904 3.532-.417.3.162.489 1.868 5.626.003.008c.07.205.061.334.044.399-.015.06-.041.086-.063.1-.038.026-.217.094-.495-.116l-.009-.006-4.793-3.511z" stroke="currentColor" stroke-width="1.4"/></svg>
